X:1
T:Sicut cedrus exaltata sum - Anerio
T:#
%%score [ 1 2 3 4 ]
L:1/8
Q:1/4=200
M:none
K:C
V:1 treble nm="Soprano" snm="S"
V:2 treble nm="Alto" snm="A"
V:3 treble-8 nm="Tenor" snm="T"
V:4 bass nm="Bass" snm="B"
V:1
"^Sicut cedrus exaltata sum""^Felice Anerio\n(c. 1560-1614)" z16 | z16 | z8 G8 | A8 c8- | %4
w: ||Si-|cut ce\-|
[M:4/2] c4 B4 c4 e4 | d6 d2 (c2 d2 e2 f2 | g6) f2 e4 e4 | (d2 cB A2 B2 c4) f4 | (e2 d2 d8) ^c4 | %9
w: * drus e- xal-|ta- ta sum * * *|* in Li- ba-|no, * * * * * in|Li\- * * ba-|
 d8 z4 d4 | B4 B2 B2 G8 | G4 g4 e4 e2 e2 | d8 c4 d4 | B4 B4 (c4 B2 A2) | G8 z4 A4 | A4 d8 B4 | %16
w: no, et|si- cut cy- pres-|sus, et si- cut cy-|pres- sus in|mon- te Si\- * *|on: qua-|si myr- rha|
 B4 (c6 B2 A4) | A8 z4 d4 | (d2 c2 B2 A2 B8) | B16 | B8 c4 e4 | e4 d4 c8 | B4 A4 (B4 A2 G2 | A16) | %24
w: e- le\- * *|cta, e-|le\- * * * *|cta,|de- di su-|a- vi- ta-|tem o- do\- * *||
 B16 || z8 G8 | c12 B4 | c4 G4 (A6 B2 | c4 B4) A8 | z4 d4 e4 d4 | e4 f4 g8 | f4 f4 e4 f4 | %32
w: ris.|Et|si- cut|cin- na- mo\- *|* * mum,|et si- cut|cin- na- mo-|mum et bal- sa-|
 (e4 d2 c2 B4) d4 | d4 d4 c8 | z8 c8 | c4 B4 A8 | B16 || B8 c4 e4 | e4 d4 c8 | %39
w: mum, * * * et|bal- sa- mum,|a-|ro- ma- ti-|zans.|de- di su-|a- vi- ta-|
[Q:1/4=197] B4[Q:1/4=193] A4[Q:1/4=190] (B4[Q:1/4=187] A2[Q:1/4=185] G2 |[Q:1/4=177] A16) | %41
w: tem o- do\- * *||
[Q:1/4=170] !fermata!B16 |] %42
w: ris.|
V:2
 z16 | z16 | D8 E4 G4- | G4 F4 E4 F4 |[M:4/2] G12 G4 | G4 G4 (E6 DC | D4) D4 (A6 G2 | F8) z4 A4 | %8
w: ||Si- cut ce\-|* drus e- xal-|ta- ta|sum in Li\- * *|* ba- no, *|* in|
 (G4 F2 G2 A8- | A4) A4 G8 | z4 G4 E4 E2 E2 | C8 C4 G4 | ^F4 G8 F4 | G4 G4 G4 =F4 | (E8 F6 E2 | %15
w: Li\- * * *|* ba- no,|et si- cut cy-|pres- sus in|mon- te Si-|on, in mon- te|Si\- * *|
 F2 G2 A4) G4 D2 D2 | G4 E2 E2 (A6 G2 | F4 E2 D2 E2 F2 G4) | G4 G4 G8 | G16 | G8 G4 G4 | %21
w: * * * on: qua- si|myr- rha e- le\- *||cta, e- le-|cta,|de- di su-|
 G4 _B4 A8 | G4 A4 (G8 | ^F4 G8 F4) | G16 || z16 | z16 | z16 | z16 | z16 | z16 | z16 | z16 | z16 | %34
w: a- vi- ta-|tem o- do\-||ris.||||||||||
 z16 | z16 | z16 || G8 G4 G4 | G4 _B4 A8 | G4 A4 (G8 | ^F4 G8 F4) | !fermata!G16 |] %42
w: |||de- di su-|a- vi- ta-|tem o- do\-||ris.|
V:3
 z16 | G8 A4 c4- | c4 B4 c4 e4 | d6 d2 (c2 B2 c2 d2) |[M:4/2][K:treble-8] e4 d4 c6 c2 | B8 z8 | %6
w: |Si- cut ce\-|* drus e- xal-|ta- ta sum * * *|* in Li- ba-|no,|
 G8 A4 c4 | A4 d2 d2 c4 d4 | d4 d4 e6 e2 | (f6 e2 d8) | z4 d4 B4 B2 B2 | G8 G4 c4 | c4 B4 A8 | %13
w: si- cut ce-|drus e- xal- ta- ta|sum in Li- ba-|no, * *|et si- cut cy-|pres- sus in|mon- te Si-|
 B4 e4 e2 d2 (d4- | d4 ^c4) d8 | z8 B4 B4 | e8 c2 c2 (d4- | d4 c4 B8) | B4 e4 d8 | d16 | d8 e4 e4 | %21
w: on, in mon- te Si\-|* * on:|qua- si|myr- rha e- le\-||cta, e- le-|cta,|de- di su-|
 e4 g4 (e4 f4 | g4 f2 e2 d8) | d4 e4 d8 | d16 || z4 d4 e4 d4 | e4 f4 g8 | g4 e8 (a4- | %28
w: a- vi- ta\- *||tem o- do-|ris.|Et si- cut|cin- na- mo-|mum et bal\-|
 a2 g2 g8) ^f4 | g4 G4 c4 B4 | c4 A4 (G2 A2 B2 c2 | d6 c2 B2 c2 d4) | c4 A4 (B2 A2 B2 c2 | %33
w: * * * sa-|mum, et si- cut|cin- na- mo\- * * *||mum et bal\- * * *|
 d2 e2 f4 e6) e2 | d4 f4 e2 d2 (a4- | a2 g2 g8 ^f4) | g16 || d8 e4 e4 | e4 g4 (e4 f4 | %39
w: * * * * sa-|mum a- ro- ma- ti\-||zans.|de- di su-|a- vi- ta\- *|
 g4 f2 e2 d8) | d4 e4 d8 | !fermata!d16 |] %42
w: |tem o- do-|ris.|
V:4
 C,8 D,4 F,4- | F,4 E,4 F,4 A,4 | G,6 G,2 C,8 | z4 D,4 A,8 |[M:4/2] G,6 G,2 C,8 | z4 G,4 A,4 C4- | %6
w: Si- cut ce\-|* drus e- xal-|ta- ta sum|in Li\-|* ba- no,|si- cut ce\-|
 C4 B,4 C4 C,4 | (D,2 E,2 F,2 G,2 A,4) F,4 | G,4 _B,4 A,6 A,2 | D,4 D4 B,4 B,2 B,2 | G,8 G,4 G,4 | %11
w: * drus e- xal-|ta\- * * * * ta|sum in Li- ba-|no, et si- cut cy-|pres- sus, et|
 E,4 E,2 E,2 C,8 | D,8 z4 D,4 | (G,2 F,2 E,2 D,2 C,4) D,4 | E,8 D,4 D,4- | D,4 D,4 G,8 | %16
w: si- cut cy- pres-|sus in|mon\- * * * * te|Si- on: qua\-|* si myr-|
 E,4 E,4 (F,6 G,2 | A,12 G,2 F,2 | G,8) G,8- | G,16 | G,8 C,4 C4 | C4 G,4 A,8 | E,4 F,4 (G,6 F,E, | %23
w: rha e- le\- *||* cta,||de- di su-|a- vi- ta-|tem- o- do\- * *|
 D,4 C,4 D,8) | G,16 || G,8 C4 B,4 | C4 A,4 G,8 | C,4 C4 (C2 B,2 A,2 G,2 | F,4) G,4 (D,8 | %29
w: |ris.|Et si- cut|cin- na- mo-|mum et bal\- * * *|* sa- mum,|
 G,8) z4 G,4 | C,4 D,4 E,8 | z4 D,4 E,4 D,4 | E,4 F,4 G,8 | G,4 D,4 A,6 A,2 | %34
w: * et|bal- sa- mum,|et si- cut|cin- na- mo-|mum et bal- sa-|
 D,4 D4 (C2 B,2 A,2 G,2 | F,4) G,4 D,8 | G,16 || G,8 C,4 C4 | C4 G,4 A,8 | E,4 F,4 (G,6 F,E, | %40
w: mum a- ro\- * * *|* ma- ti-|zans.|de- di su-|a- vi- ta-|tem- o- do\- * *|
 D,4 C,4 D,8) | !fermata!G,16 |] %42
w: |ris.|

